Improvs/dist/images/footer_page/linkedin.svg

<svg width="18" height="18" viewBox="0 0 18 18" fill="none" xmlns="http://www.w3.org/2000/svg">
<path d="M3.5625 1.40625C2.68229 1.40625 1.96875 2.11979 1.96875 3C1.96875 3.8802 2.68229 4.59375 3.5625 4.59375C4.4427 4.59375 5.15625 3.8802 5.15625 3C5.15625 2.11979 4.4427 1.40625 3.5625 1.40625ZM2.0625 5.90625C2.01072 5.90625 1.96875 5.94822 1.96875 6V15.75C1.96875 15.8018 2.01072 15.8438 2.0625 15.8438H5.0625C5.11428 15.8438 5.15625 15.8018 5.15625 15.75V6C5.15625 5.94822 5.11428 5.90625 5.0625 5.90625H2.0625ZM6.9375 5.90625C6.88572 5.90625 6.84375 5.94822 6.84375 6V15.75C6.84375 15.8018 6.88572 15.8438 6.9375 15.8438H9.9375C9.98925 15.8438 10.0312 15.8018 10.0312 15.75V10.5C10.0312 10.127 10.1794 9.76935 10.4431 9.50565C10.7069 9.24188 11.0645 9.09375 11.4375 9.09375C11.8105 9.09375 12.1681 9.24188 12.4319 9.50565C12.6956 9.76935 12.8438 10.127 12.8438 10.5V15.75C12.8438 15.8018 12.8857 15.8438 12.9375 15.8438H15.9375C15.9893 15.8438 16.0312 15.8018 16.0312 15.75V9.28515C16.0312 7.46513 14.4483 6.04124 12.6374 6.20587C12.0789 6.25664 11.5268 6.39548 11.0111 6.61646L10.0312 7.0364V6C10.0312 5.94822 9.98925 5.90625 9.9375 5.90625H6.9375Z" fill="white"/>
</svg>

<svg width="18" height="18" fill="none" xmlns="http://www.w3.org/2000/svg"><path d="M3.563 1.406a1.594 1.594 0 100 3.188 1.594 1.594 0 000-3.188zm-1.5 4.5A.094.094 0 001.968 6v9.75c0 .052.042.094.093.094h3a.094.094 0 00.094-.094V6a.094.094 0 00-.093-.094h-3zm4.874 0A.094.094 0 006.845 6v9.75c0 .052.042.094.093.094h3a.094.094 0 00.094-.094V10.5a1.406 1.406 0 012.813 0v5.25c0 .052.042.094.094.094h3a.094.094 0 00.093-.094V9.285c0-1.82-1.583-3.244-3.394-3.08-.558.052-1.11.19-1.626.411l-.98.42V6a.094.094 0 00-.094-.094h-3z" fill="#fff"/></svg>
